X: 331
T:Mes pensees
N: Derived from Jos2726-Mes_pensees.krn
C: Josquin des Prez
%%abc-version 2.0
%%abcx-abcm2ps-target-version 5.9.1 (29 Sep 2008)
%%abc-creator hum2abc beta
%%abcx-conversion-date 2019/02/12 16:15:54
%%abc-edited-by Jesse Rodin
%%abc-edited-by Megan K. Eagen 20/06/2012
%%abcx-initial-encoding-date 2012/08/21/
%%humdrum-veritas 1709882808
%%humdrum-veritas-data 985356370
%%linebreak <none>
%%barnumbers 0
L: 1/4
M: 2/1
Q: 1/2=120
V: 1 clef=treble
V: 2 clef=treble-8
V: 3 clef=treble-8
K: C
[V:1] z8 | 
[V:2] z8 | 
[V:3] A4d4- | 
[V:1] z8 | 
[V:2] z8 | 
[V:3] d2cBc4 | 
[V:1] A4d4- | 
[V:2] z8 | 
[V:3] d6c2 | 
[V:1] d2cBc4 | 
[V:2] z8 | 
[V:3] B2AGA4 | 
[V:1] d6c2 | 
[V:2] d4g4- | 
[V:3] G4z4 | 
[V:1] B2AGA4 | 
[V:2] g2fef4 | 
[V:3] z8 | 
[V:1] G2d2e2d2- | 
[V:2] g6f2 | 
[V:3] z8 | 
[V:1] dcc4B2 | 
[V:2] e2dcd4 | 
[V:3] z4G4 | 
[V:1] c4z4 | 
[V:2] c2g2a2g2- | 
[V:3] A2c4_B2 | 
[V:1] z8 | 
[V:2] gff4e2 | 
[V:3] A2GFG4 | 
[V:1] c6BA | 
[V:2] f4z2c2- | 
[V:3] F8 | 
[V:1] c4B4 | 
[V:2] cdefg4 | 
[V:3] z8 | 
[V:1] A3Bc2d2- | 
[V:2] f2a3gfe | 
[V:3] z8 | 
[V:1] d2c2B2AG | 
[V:2] f2e2d2g2- | 
[V:3] z8 | 
[V:1] A4G4 | 
[V:2] g2^f2g2=fe | 
[V:3] z8 | 
[V:1] z8 | 
[V:2] d2c2d2B2 | 
[V:3] F6ED | 
[V:1] z8 | 
[V:2] A4G3A | 
[V:3] F4E4 | 
[V:1] z8 | 
[V:2] Bcd3cBA | 
[V:3] D3EF2G2- | 
[V:1] z8 | 
[V:2] B2A2G2c2- | 
[V:3] G2F2E2DC | 
[V:1] z4G4 | 
[V:2] c2B2c4 | 
[V:3] D4C4 | 
[V:1] A4G4 | 
[V:2] z4G4 | 
[V:3] z8 | 
[V:1] c4B4 | 
[V:2] A4G4 | 
[V:3] z8 | 
[V:1] A2GFE2A2- | 
[V:2] c6BA | 
[V:3] z8 | 
[V:1] A2^G2A4 | 
[V:2] B4A4 | 
[V:3] z8 | 
[V:1] z8 | 
[V:2] e4f4 | 
[V:3] C4D4 | 
[V:1] z8 | 
[V:2] e2g2f2ed | 
[V:3] C4F4- | 
[V:1] z8 | 
[V:2] c2d4^c2 | 
[V:3] F2EDE4 | 
[V:1] z4A4 | 
[V:2] d6c2 | 
[V:3] D4z4 | 
[V:1] B4c4 | 
[V:2] B2AGA4 | 
[V:3] z8 | 
[V:1] d3cB2A2- | 
[V:2] G2d4c2 | 
[V:3] z8 | 
[V:1] AGG4^F2 | 
[V:2] d2cBA4 | 
[V:3] z4D4 | 
[V:1] G4z4 | 
[V:2] G4z4 | 
[V:3] E4F4 | 
[V:1] G6F2 | 
[V:2] z8 | 
[V:3] G3FE2D2- | 
[V:1] E2DCD4 | 
[V:2] z4d4 | 
[V:3] DCC4B,2 | 
[V:1] C4z4 | 
[V:2] e4f4 | 
[V:3] C4z2D2 | 
[V:1] z8 | 
[V:2] g3fe2d2- | 
[V:3] E3FG2F2 | 
[V:1] z8 | 
[V:2] dcc4B2 | 
[V:3] E2F2D4 | 
[V:1] c4c4- | 
[V:2] c4z4 | 
[V:3] C8 | 
[V:1] c2BAB4 | 
[V:2] c4d4- | 
[V:3] z8 | 
[V:1] A4d4- | 
[V:2] d2e2f4 | 
[V:3] z8 | 
[V:1] d2c2B4 | 
[V:2] g2a4g2 | 
[V:3] z8 | 
[V:1] A4z4 | 
[V:2] f2edc2d2 | 
[V:3] F4F4- | 
[V:1] z4G4 | 
[V:2] A2d4^c2 | 
[V:3] F2EDE4 | 
[V:1] F4G2E2- | 
[V:2] d4z4 | 
[V:3] D4G4- | 
[V:1] EDD4^C2 | 
[V:2] z8 | 
[V:3] G2F2E4 | 
[V:1] D4A3B | 
[V:2] f4f4- | 
[V:3] D4z4 | 
[V:1] c2d4c2 | 
[V:2] f2ede4 | 
[V:3] z8 | 
[V:1] A2B3AA2- | 
[V:2] d6c2 | 
[V:3] z4D4 | 
[V:1] A2G2A4 | 
[V:2] B4A4 | 
[V:3] E4F4 | 
[V:1] D4z4 | 
[V:2] z4d4 | 
[V:3] G4D2d2- | 
[V:1] z8 | 
[V:2] e4d2f2 | 
[V:3] d2c2d3c | 
[V:1] z8 | 
[V:2] g2a3gg2- | 
[V:3] B2A2c2B2 | 
[V:1] z4G4 | 
[V:2] g2^f2g4 | 
[V:3] A4G4 | 
[V:1] A4G2B2 | 
[V:2] z2c4d2 | 
[V:3] z8 | 
[V:1] c2d3cc2- | 
[V:2] e2f2edc2 | 
[V:3] z8 | 
[V:1] c2B2c3B | 
[V:2] d4c2e2 | 
[V:3] G4A4- | 
[V:1] A2G2c2BA | 
[V:2] f2g3ff2- | 
[V:3] A2B2A2GF | 
[V:1] B4A4- | 
[V:2] f2e2f2ed | 
[V:3] G4F4- | 
[V:1] A4z4 | 
[V:2] c2d4c2 | 
[V:3] F2EDE4 | 
[V:1] F4G4 | 
[V:2] d2A2B4 | 
[V:3] D4z4 | 
[V:1] A4D4 | 
[V:2] A4z4 | 
[V:3] F4G4 | 
[V:1] z8 | 
[V:2] c4d4 | 
[V:3] A4D4 | 
[V:1] z8 | 
[V:2] e4A4 | 
[V:3] z2A3Bc2- | 
[V:1] z8 | 
[V:2] e4e4 | 
[V:3] c2BAG4 | 
[V:1] z8 | 
[V:2] f4e4 | 
[V:3] F3GABc2 | 
[V:1] z8 | 
[V:2] f2e2f2e2 | 
[V:3] d2c2d2A2- | 
[V:1] z8 | 
[V:2] f2edc3d | 
[V:3] A2B2A2c2- | 
[V:1] z8 | 
[V:2] e2f3ee2- | 
[V:3] cBA2G2A2 | 
[V:1] z8 | 
[V:2] e2d2e4 | 
[V:3] F4E4 | 
[V:1] A8 | 
[V:2] c2d2c2f2- | 
[V:3] F2D2F2A2 | 
[V:1] _B4A4 | 
[V:2] f2e2f4 | 
[V:3] G4F4 | 
[V:1] _B2A2B2A2 | 
[V:2] g2f2g2d2- | 
[V:3] z8 | 
[V:1] _B3A/G/F3G | 
[V:2] d2e2d2f2- | 
[V:3] z8 | 
[V:1] A2_B3AA2- | 
[V:2] fed2c_BA2 | 
[V:3] z8 | 
[V:1] A2G2A4 | 
[V:2] _B4A2c2 | 
[V:3] z4A4- | 
[V:1] z8 | 
[V:2] d2e3dd2- | 
[V:3] A2G2F2ED | 
[V:1] z4A4- | 
[V:2] d2^c2d4 | 
[V:3] E4D4 | 
[V:1] A2G2F2ED | 
[V:2] z8 | 
[V:3] A6B2 | 
[V:1] E4D4 | 
[V:2] z8 | 
[V:3] c4d4- | 
[V:1] A4B4 | 
[V:2] z8 | 
[V:3] d2c2B2AG | 
[V:1] c4d4- | 
[V:2] z8 | 
[V:3] A4G4- | 
[V:1] d2c2B2AG | 
[V:2] d4e4 | 
[V:3] G4z4 | 
[V:1] A4G2d2 | 
[V:2] f4g4- | 
[V:3] D4G4 | 
[V:1] e2d3cc2- | 
[V:2] g2f2e2dc | 
[V:3] E2F2G2A2 | 
[V:1] c2B2c4 |]  
[V:2] d4c4 |]  
[V:3] G4C4 |]  



